!!!COM: Anon.
!!!OTL: Veri Vitis Germine
!!!SCA: Folio 269'-270'
!!!YOR: from 'Thirty-Five Conductus for Two and Three Voices', pp.53-58
!!!YOR: edited by Janet Knapp, Collegium Musicum No. 6, Yale University (1965)
!!!YOR: from the School of Notre Dame; circa 1170-1240
!!!YOO: Yale University
!!!YOY: 1965
!! NOTE: The three notes in the second (upper) voice of bar 59 are probably a
!!       mistake in the manuscript.  They probably should be down an
!!       octave to avoid the major ninth leap to bar 60.  Nevertheless
!!       the bar in question is encoded as written.
**kern	**kern
*M6/8	*M6/8
=1	=1
4.A	4.c
4.r	4.r
=2	=2
4.G	4.d
4.r	4d
.	8c
=3	=3
4.F	4.f
4.r	4f
.	8e
=4	=4
4.G	4.d
4.r	4d
.	8e
=5	=5
4A	4c
8B-	8B-
8A	4B-
8G	.
8F	8A
=6	=6
4.G	4.G
4.r	4.r
=7	=7
4.B	4.F
4.r	4F
.	8G
=8	=8
4.A	4.A
4.r	4A
.	8G
=9	=9
4B-	8F
.	8E
8c	8F
8B-	4.D
8A	.
8G	.
=10	=10
4.A	4.D
4.r	4.r
=11	=11
4.F	4.B-
4.r	4B-
.	8c
=12	=12
4G	4d
8F	8c
4B-	4A
8A	8F
=13	=13
4.G	4.G
4.r	4.r
=14	=14
4.A	4.A
4.r	4.G
=15	=15
4c	4F
8B-	8G
4B-	4B-
8A	8c
=16	=16
4F	4A
8G	8D
4B-	4.F
8A	.
=17	=17
4.G	4.G
4G	4G
8A	8A
=18	=18
4.F	4.c
4.G	4.B-
=19	=19
4.A	4.A
4.B-	4.G
=20	=20
4c	4.F
8B-	.
4.B-	4.G
=21	=21
4.A	4.A
4.r	4.r
=22	=22
4B-	4B-
8G	8d
4E	4c
8G	8B-
=23	=23
4.A	4.A
4.r	4.r
=24	=24
4B-	4f
8A	8e
4G	4d
8A	8c
=25	=25
4.G	4.B-
4G	4B-
8A	8c
=26	=26
4.F	4.A
4.F	4.A
=27	=27
4.G	4.G
4.r	4.r
=28	=28
4.A	4f
.	8e
4.c	4.e
=29	=29
4.d	4.G
4.r	4.r
=30	=30
4c	4F
8B-	8G
4A	4A
8c	8D
=31	=31
4B-	4F
8A	8r
4G	4G
8A	8A
=32	=32
4B-	4G
8A	8F
4c	4G
8A	8A
=33	=33
4B-	4B-
8A	8A
4F	4c
8r	8r
=34	=34
4.G	4.d
4.A	8c
.	8B-
.	8A
=35	=35
4c	4.G
8B-	.
4.B-	4.F
=36	=36
4A	4c
8G	8B-
4.F	4.A
=37	=37
4.G	4.G
4.r	4.r
=38	=38
4.A	4.c
4.B-	4.d
=39	=39
4.A	4.e
4A	4.f
8G	.
=40	=40
4.G	4e
.	8d
4.F	4.e
=41	=41
4.G	4.d
4.r	4.r
=42	=42
4A	4d
8B-	8e
4c	4c
8d	8d
=43	=43
4f	4B-
8e	8A
4d	4B-
8c	16c
.	16B-
=44	=44
4d	4G
8e	8A
4f	4B-
8e	8c
=45	=45
4.d	4.d
4.r	4.r
=46	=46
4.g	4.c
8f	4.f
8e	.
8d	.
=47	=47
2.G	{24g
.	24f
.	24e
.	16d
.	16c
.	16B-
.	16A}
.	4.G
=48	=48
4.B-	4.F
4.r	4.r
=49	=49
4.c	4.G
8B-	4A
8A	.
8G	8B-
=50	=50
4.F	4.c
4.r	4.r
=51	=51
4.A	4.e
4.c	4.f
=52	=52
4.d	4d
.	8c
4.c	8B-
.	8A
.	8G
=53	=53
4.B-	4.F
4.B-	4.G
=54	=54
4.A	4.A
4A	4A
8G	8G
=55	=55
2.F	4B-
.	8B-
.	4.A
=56	=56
4.G	4.G
4.r	4.r
=57	=57
4B-	4F
8A	8G
4G	4B-
8F	8c
=58	=58
4G	4B-
8A	8A
4B-	4.G
8A	.
!! NOTE: The three notes in the second (upper) voice of bar 59 are probably a
!! mistake in the manuscript.  They probably should be down an
!! octave to avoid the major ninth leap to bar 60.  Nevertheless
!! the bar in question is encoded as written.
=59	=59
4.G	4.d
4.r	4d
.	8e
=60	=60
4.A	4.D
4.B-	4.F
=61	=61
4A	4.G
8G	.
4.F	4.A
=62	=62
4.G	4.G
4.r	4.r
=63	=63
4.F	4.c
4.G	4.B-
=64	=64
4.A	4.A
4.B-	4.G
=65	=65
4.A	4.F
4B-	4.G
8G	.
=66	=66
4.F	4.B-
4.r	4.r
=67	=67
4.F	4d
.	8c
4.G	4.B-
=68	=68
4.A	4.A
4.B-	4.G
=69	=69
4.A	4.F
4B-	4.G
8G	.
=70	=70
4.F	4.B-
4.F	4B-
.	8A
=71	=71
4.G	4.G
4.r	4.r
=72	=72
4B-	4B-
8c	8A
4d	4G
8F	8A
=73	=73
4.G	4.G
4.A	4.F
=74	=74
4.B-	4.G
4A	4F
8r	8r
=75	=75
4B-	4B-
8c	8A
4d	4G
8F	8A
=76	=76
4.G	4.G
4.A	4.F
=77	=77
4.B-	4.G
4.A	4.A
=78	=78
4A	4A
8G	8G
4.G	4c
.	8B-
=79	=79
4.F	4B-
.	8A
4G	4G
8r	8r
=80	=80
4A	4.A
8G	.
4F	4.r
8E	.
=81	=81
4F	4.G
8G	.
4F	4.B-
8E	.
=82	=82
4.D	4.A
4.r	4.r
=83	=83
4F	4c
8G	8B-
4A	4A
8G	8c
=84	=84
4B-	4B-
8A	8c
4.G	8d
.	8d
.	8e
=85	=85
[2.F	16f
.	16e
.	16d
.	16c
.	16B-
.	16A
.	4.G
=86	=86
4.F]	4.A
4G;	4G;
8r	8r
=87	=87
4.d	4.f
4.e	8e
.	8d
.	8c
=88	=88
4.f	4.B-
8e	8A
8d	8G
8c	8F
=89	=89
4.B-	4.G
4.B-	4A
.	8B-
=90	=90
4A	4.c
8G	.
4F	4.r
8r	.
=91	=91
4G	4d
8A	8c
4B-	4B-
8A	8c
=92	=92
4B-	4B-
8c	8A
4B-	4G
8A	8F
=93	=93
4G	4B-
8F	8c
4.G	4.B-
=94	=94
4.A	4.A
4.r	4.r
=95	=95
4B-	4B-
8A	8c
4G	4d
8A	8e
=96	=96
4B-	8f
.	8d
8c	8c
4d	4B-
8c	8c
=97	=97
8B-	4d
8A	.
8G	8c
4G	8c
.	8B-
8F	8A
=98	=98
4.G	4.G
4.r	4.r
=99	=99
4B-	4B-
8A	8c
4G	8d
.	8c
8F	8A
=100	=100
4G	4G
8A	8F
4c	4G
8B-	8F
=101	=101
4B-	4G
8A	8A
4G	4B-
8B-	8A
=102	=102
4.d	4.G
4.r	4.r
=103	=103
4f	4B-
8e	8c
4d	4d
8e	8c
=104	=104
4f	4B-
8e	8A
4c	4G
8A	8A
=105	=105
4.B-	4.F
4A	4A
8G	8B-
=106	=106
4.F	4.c
4.r	4.r
=107	=107
4.G	4.d
4A	4c
8Bn	8Bn
=108	=108
4e	4A
8d	8G
8Bn	8A
8A	8Bn
8G	8c
=109	=109
4.G	4.Bn
4.F	4.A
=110	=110
4.G	4.G
4.r	4.r
=111	=111
8d	4.d
8c	.
8B-	.
4.A	4e
.	8f
=112	=112
4.G	4.g
[4.F	8f
.	8e
.	8d
=113	=113
4.F]	4.c
4.B-	8e-
.	8d
.	8c
=114	=114
4B-	4.B-
8c	.
8B-	4.c
8A	.
8G	.
=115	=115
4.F	4d
.	8e-
4G	4d
8r	8r
=116	=116
4d	4d
8c	8en
4.B-	4.f
=117	=117
4d	8e
.	8d
8e	8c
4f	4B-
8e	8r
=118	=118
4c	4e
8d	8d
4e	4c
8d	8e
=119	=119
4.c	4.g
4.B-	4.f
=120	=120
4A	8e
.	8d
8G	8e
4.A	4.c
=121	=121
4.G	4.d
4.r	4.r
=122	=122
4.F	4.c
4.G	4.B-
=123	=123
4.A	4A
.	8G
4.B-	4.F
=124	=124
4.c	4.G
8B-	4A
8A	.
8G	8B-
=125	=125
4.F	4.c
4.r	4.r
=126	=126
4B-	4B-
8A	8c
4.G	4d
.	8c
=127	=127
4.r	4d
.	8e
4.F	4f
.	8e
=128	=128
4.r	4d
.	8c
4.A	8B-
.	8A
.	8G
=129	=129
4.r	4F
.	8F
4B-	4G
8A	8F
=130	=130
4.G	4B-
.	8c
4.r	4d
.	8c
=131	=131
4.F	4.A
4.r	4.r
=132	=132
4.G	4G
.	8F
4A	4B-
8G	8c
=133	=133
4A	8B-
.	8A
8G	8G
4.F	4.A
=134	=134
4.G	4.G
4.r	4.r
=135	=135
4.d	4.G
8c	4A
8B-	.
8A	8B-
=136	=136
4B-	8A
.	8G
8c	8F
8B-	4.B-
8A	.
8G	.
=137	=137
4.G	4c
.	8B-
4.F	4.A
=138	=138
4.G	4.G
4.r	4.r
=139	=139
4B-	4B-
8A	8d
4F	4c
8G	8B-
=140	=140
4.B-	4A
.	8G
4.A	4F
.	8G
=141	=141
4.G	4.B-
4.F	4.A
=142	=142
4.G	4.G
4.r	4.r
=143	=143
4B-	4B-
8A	8c
4G	4B-
8A	8A
=144	=144
4c	4G
8B-	8F
4A	4A
8B-	8G
=145	=145
4c	4F
8B-	8G
4A	4A
8B-	8B-
=146	=146
4d	4A
8c	8G
4c	4F
8A	8A
=147	=147
4F	4c
8F	8c
4G	4B-
8G	8B-
=148	=148
4F	4c
8F	8c
4G	4B-
8G	8B-
=149	=149
4F	4c
8G	8B-
4A	4A
8A	8B-
=150	=150
4A	4c
8G	8d
4B-	4F
8c	8G
=151	=151
4.A	4.A
4.r	4.r
=152	=152
4c	4F
8B-	8G
4A	4A
8B-	8G
=153	=153
4c	4F
8d	8G
4F	4B-
8F	8c
=154	=154
4c	4F
8B-	8F
4B-	4G
8A	8F
=155	=155
4G	4G
8F	8A
4G	4G
8A	8F
=156	=156
4.D	4.A
4.r	4.r
=157	=157
2.F	4B-
.	8B-
.	4.A
=158	=158
4.G	4.G
4.r	4.r
=159	=159
4d	4.d
8c	.
4B-	4.r
8G	.
=160	=160
4.F	4.f
4.r	4.r
=161	=161
4.F	4e
.	8c
4.G	4.B-
=162	=162
4.F	4.A
4.r	4.r
=163	=163
4c	4F
8B-	8G
4A	4A
8c	8G
=164	=164
4B-	4B-
8A	8c
4.G	4.d
=165	=165
4.F	4.f
4.r	4.r
=166	=166
4.F	4e
.	8c
4G	4.B-
8A	.
=167	=167
4.F	4.A
4.r	4.r
=168	=168
4c	4F
8B-	8G
4A	4A
8c	8G
=169	=169
4B-	4B-
8A	8c
4G	4d
8F	8c
=170	=170
4.A	4A
.	8A
4A	4.G
8G	.
=171	=171
4.c	4.G
4c	4.F
8A	.
=172	=172
4.G	4.G
4.r	4.r
=173	=173
4.B-	4.B-
4.A	4.c
=174	=174
4.G	4.d
4.r	4.r
=175	=175
4.F	4.f
4.G	4.g
=176	=176
4.B-	4.f
4B-	4.r
8c	.
=177	=177
8B-	8e
8A	8d
8G	8c
4.F	4.f
=178	=178
4.G	4.d
4.r	4.r
=179	=179
4.B-	4.f
4.c	8e
.	8d
.	8c
=180	=180
4.d	4.B-
4d	4.r
8c	.
=181	=181
4B-	4.c
8A	.
4.G	4d
.	8c
=182	=182
4A	8B-
.	8A
8B-	8G
4.A	4.F
=183	=183
4.G	4.G
4.r	4.r
=184	=184
4.f	4.B-
8e	4.c
8d	.
8c	.
=185	=185
4.d	8B-
.	8A
.	8G
4c	4.B-
8B-	.
=186	=186
4.c	4.c
8B-	4.d
8A	.
8G	.
=187	=187
4.F	4.f
4.r	4.r
=188	=188
4.B-	4.f
4.G	4.g
=189	=189
4.c	4.c
4.d	4.B-
=190	=190
4e	4.A
8c	.
4.d	4.B-
=191	=191
4.c	4.c
4.r	4c
.	8B-
=192	=192
4.d	4A
.	8G
4.f	4.F
=193	=193
4d	4.B-
8B-	.
8A	4c
8G	.
8F	8B-
=194	=194
4c	4A
8B-	8G
4.A	4.F
=195	=195
4.G	4.G
4.r	4.r
=196	=196
2.c	8f
.	16g
.	16f
.	16e
.	16d
.	8c
.	8B-
.	8A
=197	=197
4.d	4.G
4.r	4.r
=198	=198
4.f	4.B-
4e	4.c
8d	.
=199	=199
4.c	4c
.	8B-
4.f	8A
.	8G
.	8A
=200	=200
4f	4.B-
8e	.
4f	4.A
8g	.
=201	=201
4.g	4.G
4.r	4.r
=202	=202
16f	2.B-
16e	.
16d	.
16c	.
16B-	.
16A	.
4.G	.
=203	=203
4.F	4.c
4.r	4.r
=204	=204
2.B-	16f
.	16e
.	16d
.	16c
.	16B-
.	16A
.	4.G
=205	=205
4.c	4.F
4.r	4.r
=206	=206
4.B-	4.G
8A	8A
8G	8B-
8F	8c
=207	=207
4B-	4B-
8c	8A
4d	4G
8c	8F
=208	=208
4B-	4G
8A	8A
4G	4B-
8F	8c
=209	=209
4.A	4.A
4.r	4.r
=210	=210
4.c	4.f
4d	8e
.	8d
8e	8c
=211	=211
4f	4B-
8e	8A
8d	4G
8c	.
8B-	8F
=212	=212
4A	4c
8G	8B-
4.F	4.A
=213	=213
4.G	4.G
4.r	4.r
!! New section
=214	=214
4.g	4.c
4g	4c
8g	8c
=215	=215
4.f	4.e-
4f	4d
8f	8c
=216	=216
4.e-	4.B-
4f	4c
8g	8d
=217	=217
4.d	4.d
4.r	4.r
=218	=218
4.f	4.B-
4f	4.c
8f	.
=219	=219
4.e-	4.e-
4e-	4d
8e-	8c
=220	=220
4.d	4.B-
4e-	4.c
8f	.
=221	=221
4.c	4.c
4.r	4.r
=222	=222
4.c	4.g
4d	4g
8e-	8g
=223	=223
4.e-	4.f
4d	4.e-
8c	.
=224	=224
4.B-	4d
.	8c
4c	8B-
.	8A
8d	8G
=225	=225
4.d	4.G
4.r	4.r
=226	=226
4.e-	4.B-
4e-	4B-
8f	8B-
=227	=227
4.d	4.B-
4d	4A
8e-	8G
=228	=228
4.d	4.F
4c	4G
8d	8B-
=229	=229
4.B-	4.B-
4B-	4.r
8c	.
=230	=230
4.e-	4.B-
4e-	4B-
8f	8B-
=231	=231
4.d	4.B-
4d	4A
8c	8G
=232	=232
4B-	4.B-
8A	.
4G	4c
8F	8d
=233	=233
4.G	4.d
4.r	4.r
=234	=234
4F	4c
8G	8d
4B-	4B-
8c	8A
=235	=235
4B-	4B-
8A	8c
4.G	8d
.	8c
.	8B-
=236	=236
4.A	4A
.	8G
4.G	4A
.	8B-
=237	=237
4F	8c
.	8c
8r	8d
[4.F	16f
.	16e
.	16d
.	16c
.	16B-
.	16A
=238	=238
2.F]	4.G
.	4.A
=239	=239
4.G;	4.G;
4.r	4.r
==	==
*-	*-
!!!ENC: David Huron
!!!YEC: Copyright 1987, David Huron
!!!EEV: 1.0
